media/logos/CC-Licentie.svg

<?xml version="1.0" encoding="UTF-8" standalone="no"?>
<!-- Created with Inkscape (http://www.inkscape.org/) -->
<svg xmlns:dc="http://purl.org/dc/elements/1.1/" xmlns:cc="http://web.resource.org/cc/" xmlns:rdf="http://www.w3.org/1999/02/22-rdf-syntax-ns#" xmlns:svg="http://www.w3.org/2000/svg" xmlns="http://www.w3.org/2000/svg" xmlns:sodipodi="http://sodipodi.sourceforge.net/DTD/sodipodi-0.dtd" xmlns:inkscape="http://www.inkscape.org/namespaces/inkscape" width="120" height="42" id="svg2759" sodipodi:version="0.32" inkscape:version="0.45+devel" version="1.0" sodipodi:docname="by-nd.svg" inkscape:output_extension="org.inkscape.output.svg.inkscape">
  <defs id="defs2761"/>
  <sodipodi:namedview id="base" pagecolor="#ffffff" bordercolor="#8b8b8b" borderopacity="1" gridtolerance="10000" guidetolerance="10" objecttolerance="10" inkscape:pageopacity="0.0" inkscape:pageshadow="2" inkscape:zoom="1" inkscape:cx="179" inkscape:cy="89.569904" inkscape:document-units="px" inkscape:current-layer="layer1" width="120px" height="42px" inkscape:showpageshadow="false" inkscape:window-width="1198" inkscape:window-height="624" inkscape:window-x="488" inkscape:window-y="401"/>
  <metadata id="metadata2764">
    <rdf:RDF>
      <cc:Work rdf:about="">
        <dc:format>image/svg+xml</dc:format>
        <dc:type rdf:resource="http://purl.org/dc/dcmitype/StillImage"/>
      </cc:Work>
    </rdf:RDF>
  </metadata>
  <g inkscape:label="Layer 1" inkscape:groupmode="layer" id="layer1">
    <g transform="matrix(0.9937808,0,0,0.9936696,-177.69414,-223.30978)" id="g78" inkscape:export-filename="/mnt/hgfs/Bov/Documents/Work/2007/cc/identity/srr buttons/big/by-nd.png" inkscape:export-xdpi="300.23013" inkscape:export-ydpi="300.23013">
	<path id="path3817_6_" nodetypes="ccccccc" d="M 182.23535,225.17188 L 296.29931,225.375 C 297.89306,225.375 299.31689,225.13867 299.31689,228.55566 L 299.17724,266.12207 L 179.35693,266.12207 L 179.35693,228.41602 C 179.35693,226.73145 179.52002,225.17188 182.23535,225.17188 z" style="fill:#aab2ab"/>

	<g id="g5908_6_" transform="matrix(0.872921,0,0,0.872921,50.12536,143.2144)">
		
			<path id="path5906_6_" cx="296.35416" ry="22.939548" cy="264.3577" type="arc" rx="22.939548" d="M 187.20946,115.90759 C 187.21504,124.58783 180.1816,131.62912 171.50138,131.6347 C 162.82116,131.64028 155.77932,124.60684 155.77428,115.92663 C 155.77428,115.91992 155.77428,115.9143 155.77428,115.90759 C 155.76924,107.22625 162.80213,100.18609 171.48236,100.18051 C 180.16368,100.17602 187.20442,107.20837 187.20946,115.88858 C 187.20946,115.89529 187.20946,115.90088 187.20946,115.90759 z" style="fill:#ffffff"/>

		<g id="g5706_6_" transform="translate(-289.6157,99.0653)">
			<path id="path5708_6_" d="M 473.88458,4.04068 C 477.36999,7.52551 479.11297,11.79349 479.11297,16.84229 C 479.11297,21.89225 477.40014,26.11432 473.9746,29.51081 C 470.33929,33.08625 466.04284,34.874 461.08517,34.874 C 456.18737,34.874 451.9653,33.10191 448.42004,29.55442 C 444.87423,26.00916 443.10162,21.77143 443.10162,16.84229 C 443.10162,11.91431 444.87423,7.64634 448.42004,4.04068 C 451.87524,0.55359 456.09732,-1.18939 461.08517,-1.18939 C 466.13342,-1.18939 470.39917,0.55359 473.88458,4.04068 z M 450.7666,6.38443 C 447.81982,9.36136 446.34704,12.84845 446.34704,16.84677 C 446.34704,20.84512 447.80529,24.302 450.72125,27.2185 C 453.63781,30.13391 457.10977,31.59274 461.1383,31.59274 C 465.16686,31.59274 468.66851,30.12051 471.64489,27.17376 C 474.47076,24.43734 475.88427,20.99615 475.88427,16.84676 C 475.88427,12.72872 474.44781,9.23381 471.57659,6.36202 C 468.70598,3.49248 465.22674,2.05605 461.1383,2.05605 C 457.04993,2.05606 453.59192,3.49921 450.7666,6.38443 z M 458.52106,15.08813 C 458.07077,14.10589 457.39673,13.61587 456.49784,13.61587 C 454.9087,13.61587 454.11439,14.68539 454.11439,16.8244 C 454.11439,18.96341 454.9087,20.03293 456.49784,20.03293 C 457.54719,20.03293 458.29676,19.5116 458.74647,18.46893 L 460.94926,19.64135 C 459.89933,21.50628 458.32417,22.44042 456.22377,22.44042 C 454.60384,22.44042 453.30611,21.94369 452.33168,20.95028 C 451.35561,19.95684 450.86897,18.58752 450.86897,16.84228 C 450.86897,15.12728 451.37126,13.76577 452.37645,12.75671 C 453.38161,11.74871 454.6335,11.2453 456.13426,11.2453 C 458.35438,11.2453 459.9441,12.11902 460.90507,13.86758 L 458.52106,15.08813 z M 468.8844,15.08813 C 468.43353,14.10589 467.77295,13.61587 466.90204,13.61587 C 465.28095,13.61587 464.46991,14.68539 464.46991,16.8244 C 464.46991,18.96341 465.28095,20.03293 466.90204,20.03293 C 467.95307,20.03293 468.68921,19.5116 469.10925,18.46893 L 471.36126,19.64135 C 470.31304,21.50628 468.74011,22.44042 466.64361,22.44042 C 465.02587,22.44042 463.73095,21.94369 462.75714,20.95028 C 461.78497,19.95684 461.29773,18.58752 461.29773,16.84228 C 461.29773,15.12728 461.79224,13.76577 462.78064,12.75671 C 463.76843,11.74871 465.02588,11.2453 466.55408,11.2453 C 468.77027,11.2453 470.35779,12.11902 471.31543,13.86758 L 468.8844,15.08813 z"/>

		</g>

	</g>

	<g id="g85">
		<circle cx="242.56226" cy="240.00684" r="10.8064" id="circle87" sodipodi:cx="242.56226" sodipodi:cy="240.00684" sodipodi:rx="10.8064" sodipodi:ry="10.8064" style="fill:#ffffff"/>

		<g id="g89">
			<path d="M 245.68994,236.87988 C 245.68994,236.46289 245.35205,236.12597 244.93603,236.12597 L 240.16357,236.12597 C 239.74755,236.12597 239.40966,236.46288 239.40966,236.87988 L 239.40966,241.65234 L 240.74071,241.65234 L 240.74071,247.30468 L 244.3579,247.30468 L 244.3579,241.65234 L 245.68993,241.65234 L 245.68993,236.87988 L 245.68994,236.87988 z" id="path91"/>

			<circle cx="242.5498" cy="233.86523" r="1.63232" id="circle93" sodipodi:cx="242.5498" sodipodi:cy="233.86523" sodipodi:rx="1.63232" sodipodi:ry="1.63232"/>

		</g>

		<path clip-rule="evenodd" d="M 242.53467,228.10059 C 239.30322,228.10059 236.56641,229.22754 234.32715,231.48438 C 232.0293,233.81739 230.88086,236.58008 230.88086,239.76856 C 230.88086,242.95704 232.0293,245.7002 234.32715,247.99512 C 236.625,250.29004 239.36133,251.4375 242.53467,251.4375 C 245.74756,251.4375 248.53272,250.28027 250.88819,247.96582 C 253.10889,245.76855 254.21827,243.03613 254.21827,239.76855 C 254.21827,236.50097 253.08936,233.74023 250.83057,231.48437 C 248.57178,229.22754 245.80615,228.10059 242.53467,228.10059 z M 242.56396,230.2002 C 245.2124,230.2002 247.46142,231.13379 249.31103,233.00098 C 251.18115,234.84766 252.11572,237.1045 252.11572,239.76856 C 252.11572,242.45215 251.20068,244.67969 249.36963,246.44922 C 247.4419,248.35449 245.17334,249.30762 242.56397,249.30762 C 239.9546,249.30762 237.70557,248.36426 235.81739,246.47852 C 233.92774,244.5918 232.98389,242.35547 232.98389,239.76856 C 232.98389,237.18165 233.93799,234.92579 235.84619,233.00098 C 237.67676,231.13379 239.9165,230.2002 242.56396,230.2002 z" id="path95" style="fill-rule:evenodd"/>

	</g>

	<path d="M 297.29639,224.73242 L 181.06739,224.73242 C 179.82081,224.73242 178.80616,225.74707 178.80616,226.99316 L 178.80616,266.48925 C 178.80616,266.77148 179.03516,266.99999 179.3169,266.99999 L 299.04639,266.99999 C 299.32813,266.99999 299.55713,266.77147 299.55713,266.48925 L 299.55713,226.99316 C 299.55713,225.74707 298.54297,224.73242 297.29639,224.73242 z M 181.06738,225.75391 L 297.29638,225.75391 C 297.97997,225.75391 298.53564,226.30957 298.53564,226.99317 C 298.53564,226.99317 298.53564,242.87598 298.53564,254.37208 L 215.46191,254.37208 C 212.41699,259.87794 206.55078,263.61622 199.81836,263.61622 C 193.08301,263.61622 187.21826,259.88087 184.17481,254.37208 L 179.82764,254.37208 C 179.82764,242.87599 179.82764,226.99317 179.82764,226.99317 C 179.82764,226.30957 180.38379,225.75391 181.06738,225.75391 z" id="path97"/>

	<g enable-background="new    " id="g99">
		<path d="M 239.17822,257.68848 C 239.49609,257.68848 239.78564,257.7168 240.04736,257.77246 C 240.30908,257.82812 240.53369,257.91992 240.72119,258.04785 C 240.90771,258.1748 241.05322,258.34473 241.15576,258.55566 C 241.2583,258.76757 241.31006,259.02832 241.31006,259.33984 C 241.31006,259.67578 241.23389,259.95507 241.08057,260.17968 C 240.92823,260.40331 240.70166,260.58691 240.40284,260.72948 C 240.81495,260.84764 241.12257,261.05468 241.32569,261.35057 C 241.52881,261.64646 241.63038,262.00291 241.63038,262.41991 C 241.63038,262.75585 241.56495,263.04686 241.43409,263.29296 C 241.30323,263.53906 241.12647,263.73925 240.90577,263.89452 C 240.68409,264.05077 240.43116,264.166 240.14796,264.24022 C 239.86378,264.31542 239.57276,264.35252 239.27296,264.35252 L 236.03663,264.35252 L 236.03663,257.68846 L 239.17822,257.68846 L 239.17822,257.68848 z M 238.99121,260.38379 C 239.25244,260.38379 239.46777,260.32227 239.63623,260.19727 C 239.8042,260.07325 239.88818,259.87207 239.88818,259.59278 C 239.88818,259.43751 239.85986,259.31055 239.8042,259.21094 C 239.74756,259.11133 239.67334,259.03418 239.57959,258.97852 C 239.48633,258.92188 239.37891,258.88379 239.25732,258.86133 C 239.13574,258.83985 239.00976,258.8291 238.8789,258.8291 L 237.50536,258.8291 L 237.50536,260.38379 L 238.99121,260.38379 z M 239.07666,263.21191 C 239.22021,263.21191 239.35693,263.19824 239.48828,263.16992 C 239.61865,263.1416 239.73486,263.0957 239.83447,263.03027 C 239.93408,262.96484 240.01318,262.87597 240.07275,262.76465 C 240.13232,262.65235 240.16162,262.50977 240.16162,262.33496 C 240.16162,261.99316 240.06494,261.74902 239.87158,261.60351 C 239.67822,261.45703 239.42285,261.38378 239.10498,261.38378 L 237.50537,261.38378 L 237.50537,263.2119 L 239.07666,263.2119 L 239.07666,263.21191 z" id="path101" style="fill:#ffffff"/>

		<path d="M 241.88916,257.68848 L 243.53271,257.68848 L 245.09326,260.32032 L 246.64404,257.68848 L 248.27783,257.68848 L 245.8042,261.79493 L 245.8042,264.35255 L 244.33545,264.35255 L 244.33545,261.75782 L 241.88916,257.68848 z" id="path103" style="fill:#ffffff"/>

	</g>

	<g enable-background="new    " id="g105">
		<path d="M 265.27686,257.68848 L 268.06104,262.15918 L 268.07666,262.15918 L 268.07666,257.68848 L 269.45166,257.68848 L 269.45166,264.35254 L 267.98584,264.35254 L 265.2124,259.89063 L 265.19385,259.89063 L 265.19385,264.35254 L 263.81885,264.35254 L 263.81885,257.68848 L 265.27686,257.68848 z" id="path107" style="fill:#ffffff"/>

		<path d="M 273.61377,257.68848 C 274.04443,257.68848 274.44385,257.75684 274.81494,257.89356 C 275.18603,258.03126 275.50635,258.23633 275.77783,258.50977 C 276.04834,258.78321 276.26025,259.12598 276.4126,259.53614 C 276.56592,259.94727 276.64209,260.42969 276.64209,260.98341 C 276.64209,261.46876 276.57959,261.917 276.45557,262.32716 C 276.33057,262.73829 276.14209,263.09278 275.89014,263.39161 C 275.63721,263.68946 275.32276,263.92481 274.9458,264.09571 C 274.56885,264.26759 274.12549,264.35255 273.61377,264.35255 L 270.73584,264.35255 L 270.73584,257.68849 L 273.61377,257.68849 L 273.61377,257.68848 z M 273.51123,263.11816 C 273.72314,263.11816 273.92822,263.08398 274.12744,263.01562 C 274.32666,262.94726 274.50439,262.83398 274.65967,262.67578 C 274.81494,262.5166 274.93994,262.31055 275.03369,262.05566 C 275.12646,261.80078 275.17334,261.49023 275.17334,261.12304 C 275.17334,260.7871 275.14111,260.48437 275.07568,260.21386 C 275.01025,259.94335 274.90283,259.71191 274.75341,259.51952 C 274.60399,259.32713 274.40673,259.17968 274.16064,259.07616 C 273.91455,258.9746 273.61084,258.92284 273.25048,258.92284 L 272.20458,258.92284 L 272.20458,263.11815 L 273.51123,263.11815 L 273.51123,263.11816 z" id="path109" style="fill:#ffffff"/>

	</g>

	<g id="g6501" transform="matrix(0.624995,0,0,0.624995,-183.0107,316.9328)">
		
			<path id="path6503" cx="475.97119" ry="29.209877" cy="252.08646" type="arc" rx="29.209877" d="M 743.93005,-123.39972 C 743.93634,-113.98871 736.31128,-106.35272 726.89868,-106.34491 C 717.48767,-106.34021 709.85168,-113.96213 709.84387,-123.37628 C 709.84387,-123.38409 709.84387,-123.39346 709.84387,-123.39972 C 709.83764,-132.81229 717.46264,-140.44675 726.87524,-140.45456 C 736.28784,-140.46237 743.92224,-132.83728 743.93005,-123.42471 C 743.93005,-123.4169 743.93005,-123.40909 743.93005,-123.39972 z" style="fill:#ffffff"/>

		<g id="g6505" transform="translate(-23.9521,-87.92102)">
			<path id="path6507" d="M 750.57263,-54.14914 C 745.39917,-54.14914 741.02258,-52.34604 737.43976,-48.7366 C 733.76319,-45.00219 731.92566,-40.58343 731.92566,-35.4787 C 731.92566,-30.37552 733.76318,-25.98956 737.43976,-22.3161 C 741.11633,-18.64419 745.49292,-16.80823 750.57263,-16.80823 C 755.71179,-16.80823 760.16809,-18.66138 763.93835,-22.36298 C 767.48999,-25.88019 769.2666,-30.25211 769.2666,-35.4787 C 769.2666,-40.70844 767.45874,-45.12564 763.8446,-48.7366 C 760.23059,-52.34604 755.80554,-54.14914 750.57263,-54.14914 z M 750.61951,-50.79129 C 754.85547,-50.79129 758.45398,-49.29599 761.41492,-46.30691 C 764.40558,-43.3522 765.90088,-39.74435 765.90088,-35.47869 C 765.90088,-31.1849 764.43683,-27.62237 761.50708,-24.7911 C 758.42273,-21.74108 754.79297,-20.21764 750.61951,-20.21764 C 746.44294,-20.21764 742.84449,-21.72545 739.82257,-24.74578 C 736.80066,-27.76299 735.28973,-31.34115 735.28973,-35.47869 C 735.28973,-39.61935 736.81628,-43.22719 739.86944,-46.30691 C 742.79919,-49.29599 746.38196,-50.79129 750.61951,-50.79129 z"/>

			<g id="g6509">
				<path id="path6511" d="M 757.65088,-39.90375 L 744.07727,-39.90375 L 744.07727,-36.68964 L 757.65088,-36.68964 L 757.65088,-39.90375 z M 757.65088,-33.90369 L 744.07727,-33.90369 L 744.07727,-30.68961 L 757.65088,-30.68961 L 757.65088,-33.90369 z"/>

			</g>

		</g>

	</g>

</g>
  </g>
</svg>

<?xml version="1.0" encoding="UTF-8" standalone="no"?>
<svg id="svg2759" xmlns:rdf="http://www.w3.org/1999/02/22-rdf-syntax-ns#" xmlns="http://www.w3.org/2000/svg" height="42" width="120" version="1.0" xmlns:cc="http://web.resource.org/cc/" xmlns:dc="http://purl.org/dc/elements/1.1/">
 <metadata id="metadata2764">
  <rdf:RDF>
   <cc:Work rdf:about="">
    <dc:format>image/svg+xml</dc:format>
    <dc:type rdf:resource="http://purl.org/dc/dcmitype/StillImage"/>
   </cc:Work>
  </rdf:RDF>
 </metadata>
 <g id="layer1">
  <g id="g78" transform="matrix(.99378 0 0 .99367 -177.69 -223.31)">
   <path id="path3817_6_" fill="#aab2ab" nodetypes="ccccccc" d="m182.24 225.17l114.06 0.21c1.59 0 3.02-0.24 3.02 3.18l-0.14 37.56h-119.82v-37.7c0-1.69 0.16-3.25 2.88-3.25z"/>
   <g id="g5908_6_" transform="matrix(.87292 0 0 .87292 50.125 143.21)">
    <path id="path5906_6_" d="m187.21 115.91c0.01 8.68-7.03 15.72-15.71 15.72-8.68 0.01-15.72-7.02-15.73-15.7v-0.02c0-8.68 7.03-15.72 15.71-15.73 8.68 0 15.72 7.03 15.73 15.71v0.02z" rx="22.939548" ry="22.939548" cy="264.3577" cx="296.35416" type="arc" fill="#fff"/>
    <g id="g5706_6_" transform="translate(-289.62 99.065)">
     <path id="path5708_6_" d="m473.88 4.0407c3.49 3.4848 5.23 7.7523 5.23 12.801 0 5.05-1.71 9.272-5.14 12.669-3.63 3.575-7.93 5.363-12.88 5.363-4.9 0-9.12-1.772-12.67-5.32-3.55-3.545-5.32-7.783-5.32-12.712 0-4.928 1.77-9.1957 5.32-12.801 3.46-3.4874 7.68-5.2304 12.67-5.2304 5.04 0 9.31 1.743 12.79 5.2301zm-23.11 2.3437c-2.95 2.977-4.42 6.4636-4.42 10.463 0 3.998 1.46 7.455 4.37 10.371 2.92 2.916 6.39 4.375 10.42 4.375s7.53-1.472 10.5-4.419c2.83-2.737 4.24-6.178 4.24-10.327 0-4.118-1.43-7.6132-4.3-10.485-2.87-2.8695-6.35-4.306-10.44-4.306-4.09 0.0001-7.55 1.4432-10.37 4.3284zm7.75 8.7036c-0.45-0.982-1.12-1.472-2.02-1.472-1.59 0-2.39 1.069-2.39 3.208s0.8 3.209 2.39 3.209c1.05 0 1.8-0.521 2.25-1.564l2.2 1.172c-1.05 1.865-2.63 2.799-4.73 2.799-1.62 0-2.91-0.496-3.89-1.49-0.97-0.993-1.46-2.362-1.46-4.108 0-1.715 0.5-3.076 1.51-4.085 1-1.008 2.25-1.512 3.75-1.512 2.22 0 3.81 0.874 4.78 2.623l-2.39 1.22zm10.36 0c-0.45-0.982-1.11-1.472-1.98-1.472-1.62 0-2.43 1.069-2.43 3.208s0.81 3.209 2.43 3.209c1.05 0 1.79-0.521 2.21-1.564l2.25 1.172c-1.05 1.865-2.62 2.799-4.72 2.799-1.61 0-2.91-0.496-3.88-1.49-0.98-0.993-1.46-2.362-1.46-4.108 0-1.715 0.49-3.076 1.48-4.085 0.99-1.008 2.25-1.512 3.77-1.512 2.22 0 3.81 0.874 4.77 2.623l-2.44 1.22z"/>
    </g>
   </g>
   <g id="g85">
    <circle id="circle87" cy="240.01" cx="242.56" r="10.806" fill="#fff"/>
    <g id="g89">
     <path id="path91" d="m245.69 236.88c0-0.42-0.34-0.75-0.75-0.75h-4.78c-0.41 0-0.75 0.33-0.75 0.75v4.77h1.33v5.65h3.62v-5.65h1.33v-4.77z"/>
     <circle id="circle93" cy="233.87" cx="242.55" r="1.6323"/>
    </g>
    <path id="path95" fill-rule="evenodd" clip-rule="evenodd" d="m242.53 228.1c-3.23 0-5.96 1.13-8.2 3.38-2.3 2.34-3.45 5.1-3.45 8.29s1.15 5.93 3.45 8.23c2.29 2.29 5.03 3.44 8.2 3.44 3.22 0 6-1.16 8.36-3.47 2.22-2.2 3.33-4.93 3.33-8.2s-1.13-6.03-3.39-8.29c-2.26-2.25-5.02-3.38-8.3-3.38zm0.03 2.1c2.65 0 4.9 0.93 6.75 2.8 1.87 1.85 2.81 4.1 2.81 6.77 0 2.68-0.92 4.91-2.75 6.68-1.93 1.9-4.2 2.86-6.81 2.86s-4.85-0.95-6.74-2.83c-1.89-1.89-2.84-4.12-2.84-6.71s0.96-4.84 2.87-6.77c1.83-1.87 4.07-2.8 6.71-2.8z"/>
   </g>
   <path id="path97" d="m297.3 224.73h-116.23c-1.25 0-2.26 1.02-2.26 2.26v39.5c0 0.28 0.23 0.51 0.51 0.51h119.73c0.28 0 0.51-0.23 0.51-0.51v-39.5c0-1.24-1.02-2.26-2.26-2.26zm-116.23 1.02h116.23c0.68 0 1.24 0.56 1.24 1.24v27.38h-83.08c-3.04 5.51-8.91 9.25-15.64 9.25-6.74 0-12.6-3.74-15.65-9.25h-4.34v-27.38c0-0.68 0.55-1.24 1.24-1.24z"/>
   <g id="g99" enable-background="new    " fill="#fff">
    <path id="path101" d="m239.18 257.69c0.32 0 0.61 0.03 0.87 0.08 0.26 0.06 0.48 0.15 0.67 0.28 0.19 0.12 0.33 0.29 0.44 0.51 0.1 0.21 0.15 0.47 0.15 0.78 0 0.34-0.08 0.62-0.23 0.84s-0.38 0.41-0.68 0.55c0.41 0.12 0.72 0.32 0.93 0.62 0.2 0.3 0.3 0.65 0.3 1.07 0 0.34-0.07 0.63-0.2 0.87-0.13 0.25-0.3 0.45-0.52 0.6-0.23 0.16-0.48 0.28-0.76 0.35-0.29 0.08-0.58 0.11-0.88 0.11h-3.23v-6.66h3.14zm-0.19 2.69c0.26 0 0.48-0.06 0.65-0.18 0.16-0.13 0.25-0.33 0.25-0.61 0-0.15-0.03-0.28-0.09-0.38-0.05-0.1-0.13-0.18-0.22-0.23-0.09-0.06-0.2-0.1-0.32-0.12s-0.25-0.03-0.38-0.03h-1.37v1.55h1.48zm0.09 2.83c0.14 0 0.28-0.01 0.41-0.04s0.24-0.07 0.34-0.14 0.18-0.15 0.24-0.27c0.06-0.11 0.09-0.25 0.09-0.43 0-0.34-0.1-0.58-0.29-0.73-0.19-0.14-0.45-0.22-0.77-0.22h-1.59v1.83h1.57z"/>
    <path id="path103" d="m241.89 257.69h1.64l1.56 2.63 1.55-2.63h1.64l-2.48 4.1v2.56h-1.46v-2.59l-2.45-4.07z"/>
   </g>
   <g id="g105" enable-background="new    " fill="#fff">
    <path id="path107" d="m265.28 257.69l2.78 4.47h0.02v-4.47h1.37v6.66h-1.46l-2.78-4.46h-0.02v4.46h-1.37v-6.66h1.46z"/>
    <path id="path109" d="m273.61 257.69c0.43 0 0.83 0.07 1.2 0.2 0.38 0.14 0.7 0.35 0.97 0.62s0.48 0.62 0.63 1.03c0.16 0.41 0.23 0.89 0.23 1.44 0 0.49-0.06 0.94-0.18 1.35-0.13 0.41-0.32 0.76-0.57 1.06s-0.57 0.53-0.94 0.71c-0.38 0.17-0.82 0.25-1.34 0.25h-2.87v-6.66h2.87zm-0.1 5.43c0.21 0 0.42-0.04 0.62-0.1 0.2-0.07 0.37-0.19 0.53-0.34 0.15-0.16 0.28-0.37 0.37-0.62 0.1-0.26 0.14-0.57 0.14-0.94 0-0.33-0.03-0.64-0.09-0.91-0.07-0.27-0.18-0.5-0.33-0.69s-0.34-0.34-0.59-0.44c-0.25-0.11-0.55-0.16-0.91-0.16h-1.05v4.2h1.31z"/>
   </g>
   <g id="g6501" transform="matrix(0.625 0 0 0.625 -183.01 316.93)">
    <path id="path6503" d="m743.93-123.4c0.01 9.41-7.62 17.05-17.03 17.06-9.41 0-17.05-7.62-17.06-17.04v-0.02c0-9.41 7.62-17.05 17.04-17.05 9.41-0.01 17.04 7.61 17.05 17.03v0.02z" rx="29.209877" ry="29.209877" cy="252.08646" cx="475.97119" type="arc" fill="#fff"/>
    <g id="g6505" transform="translate(-23.952 -87.921)">
     <path id="path6507" d="m750.57-54.149c-5.17 0-9.55 1.803-13.13 5.412-3.68 3.735-5.51 8.154-5.51 13.258 0 5.103 1.83 9.489 5.51 13.163 3.68 3.672 8.05 5.508 13.13 5.508 5.14 0 9.6-1.853 13.37-5.555 3.55-3.517 5.33-7.889 5.33-13.116 0-5.229-1.81-9.647-5.43-13.258-3.61-3.609-8.03-5.412-13.27-5.412zm0.05 3.358c4.24 0 7.83 1.495 10.79 4.484 3 2.955 4.49 6.563 4.49 10.828 0 4.294-1.46 7.857-4.39 10.688-3.09 3.05-6.72 4.573-10.89 4.573-4.18 0-7.78-1.507-10.8-4.528-3.02-3.017-4.53-6.595-4.53-10.733 0-4.14 1.53-7.748 4.58-10.828 2.93-2.989 6.51-4.484 10.75-4.484z"/>
     <g id="g6509">
      <path id="path6511" d="m757.65-39.904h-13.57v3.214h13.57v-3.214zm0 6h-13.57v3.214h13.57v-3.214z"/>
     </g>
    </g>
   </g>
  </g>
 </g>
</svg>
